X:77
T: ES LEUCHTEN DREI STERNE AM HIMMEL
N: E0048
O: Europa, Mitteleuropa, Deutschland
R: erzaehlendes Volks - Lied, Sage, Mord
M: 6/8
L: 1/16
K: F
C2 | F3EF2G3FG2 | A3BAGF4
AB | c3dc2F2A2G2 | A6z4
EF | G4A2A3Bc2 | B6G4z2 |
A6G2F2G2 | A3BAGF2z2

@@@ Tune index: 3727
